images/omega.svg

<svg width="40" height="40" viewBox="0 0 40 40" fill="none" xmlns="http://www.w3.org/2000/svg">
<path d="M39.1904 34.5978H34.9553C37.7664 30.8686 39.3147 26.2056 39.3147 21.4677C39.3147 9.99511 30.6501 0.661377 19.9988 0.661377C9.34791 0.661377 0.682858 9.99552 0.682858 21.4677C0.682858 26.2064 2.23032 30.8694 5.04109 34.5978H0.809553C0.36268 34.5978 0 34.9605 0 35.4074V38.5298C0 38.9767 0.36268 39.3394 0.809553 39.3394H12.3663C12.8132 39.3394 13.1759 38.9767 13.1759 38.5298V35.0516C13.1759 34.8589 13.1075 34.6731 12.9828 34.527L12.9379 34.474C12.8925 34.4201 12.8399 34.3728 12.782 34.3331C8.8047 31.5766 6.33354 26.6472 6.33354 21.4673C6.33354 13.1103 12.4639 6.31165 19.9988 6.31165C27.5333 6.31165 33.6636 13.1107 33.6636 21.4673C33.6636 26.6691 31.1771 31.609 27.1755 34.3598C26.9557 34.5108 26.8245 34.7601 26.8245 35.0265V38.529C26.8245 38.9759 27.1872 39.3386 27.6341 39.3386H39.1904C39.6373 39.3386 40 38.9759 40 38.529V35.4066C40 34.9601 39.6381 34.5978 39.1904 34.5978Z" fill="white"/>
</svg>

<svg width="40" height="40" fill="none" xmlns="http://www.w3.org/2000/svg"><path d="M39.19 34.598h-4.235c2.811-3.73 4.36-8.392 4.36-13.13C39.315 9.995 30.65.66 19.999.66S.683 9.996.683 21.468c0 4.738 1.547 9.401 4.358 13.13H.81a.81.81 0 0 0-.81.81v3.122c0 .447.363.81.81.81h11.556a.81.81 0 0 0 .81-.81v-3.478a.807.807 0 0 0-.193-.525l-.045-.053a.782.782 0 0 0-.156-.14c-3.977-2.757-6.448-7.687-6.448-12.867 0-8.357 6.13-15.155 13.665-15.155 7.534 0 13.665 6.799 13.665 15.155 0 5.202-2.487 10.142-6.489 12.893a.809.809 0 0 0-.35.666v3.503c0 .447.362.81.81.81H39.19a.81.81 0 0 0 .81-.81v-3.122a.809.809 0 0 0-.81-.81Z" fill="#fff"/></svg>
